resources/haticons/SVG/tidal.svg

<!-- Generated by IcoMoon.io -->
<svg version="1.1" xmlns="http://www.w3.org/2000/svg" width="24" height="24" viewBox="0 0 24 24">
<title>tidal</title>
<path d="M12.012 3.992l-4.004 4.004-4.004-4.004-4.004 4.004 4.004 4.004 4.004-4.004 4.004 4.004-4.004 4.004 4.004 4.004 4.004-4.004-4.004-4.004 4.004-4.004zM16.042 7.996l3.979-3.979 3.979 3.979-3.979 3.979z"></path>
</svg>

<svg xmlns="http://www.w3.org/2000/svg" width="24" height="24"><path d="M12.012 3.992L8.008 7.996 4.004 3.992 0 7.996 4.004 12l4.004-4.004L12.012 12l-4.004 4.004 4.004 4.004 4.004-4.004L12.012 12l4.004-4.004zm4.03 4.004l3.979-3.979L24 7.996l-3.979 3.979z"/></svg>
